X:19
T:An P\'aist\'in Fionn
R:slow air
H:See also hornpipe #137 and jig #293 "Statia Donnelly"
Z:id:hn-slowair-19
M:3/4
L:1/8
Q:1/4=80
K:Dmix
A2 | d4 ^cd | e2 a3 g | e4 ge | d4 ed | c2 A3 G | A2 d3 c | A4 G2 |
A2 d4 | c3 def | g e3 ge | d3 c A2 | G E3 A2 | D3 E D2 | D4 ||
DE | F2 G2 AB | c A3 G2 | A d3 c2 | A4 GF | G4 AB | c A3 G2 | A d3 e2 | d4 DE |
F2 G2 AB | c A3 G2 | A D3 e2 | f4 ge | d3 c A2 | G E3 A2 | D3 E D2 | D4 ||

